src/images/global/icons/nav/back-to-top.svg

<?xml version="1.0" encoding="UTF-8"?>
<svg width="48px" height="48px" viewBox="0 0 48 48" version="1.1" xmlns="http://www.w3.org/2000/svg" xmlns:xlink="http://www.w3.org/1999/xlink">
    <!-- Generator: Sketch 46.2 (44496) - http://www.bohemiancoding.com/sketch -->
    <title>icon/Nav/back-to-top</title>
    <desc>Created with Sketch.</desc>
    <defs>
        <path d="M23.6526923,31.0474615 C22.116,31.0474615 21.0498462,32.262 21.0498462,33.7490769 L21.0498462,33.7742308 C21.0498462,35.2615385 22.1406923,36.5007692 23.6778462,36.5007692 C25.2147692,36.5007692 26.2809231,35.286 26.2809231,33.7989231 L26.2809231,33.7742308 C26.2806923,32.2869231 25.1898462,31.0474615 23.6526923,31.0474615 L23.6526923,31.0474615 Z M33.3576923,31.1589231 L31.8828462,31.1589231 L31.8828462,33.8113846 L33.3946154,33.8113846 C34.3495385,33.8113846 34.9070769,33.2409231 34.9070769,32.4973846 L34.9070769,32.4726923 C34.9070769,31.6176923 34.3119231,31.1589231 33.3576923,31.1589231 L33.3576923,31.1589231 Z M24,0 C10.7450769,0 0,10.7450769 0,24 C0,37.2549231 10.7450769,48 24,48 C37.2549231,48 48,37.2549231 48,24 C48,10.7450769 37.2549231,0 24,0 L24,0 Z M18.348,31.1963077 L15.708,31.1963077 L15.708,38.1124615 L13.7990769,38.1124615 L13.7990769,31.1963077 L11.1590769,31.1963077 L11.1590769,29.436 L18.3477692,29.4357692 L18.3477692,31.1963077 L18.348,31.1963077 L18.348,31.1963077 Z M28.2756923,33.7742308 C28.2756923,36.2404615 26.3300769,38.2608462 23.6524615,38.2608462 C20.9753077,38.2608462 19.0541538,36.2656154 19.0541538,33.7989231 L19.0541538,33.7742308 C19.0541538,31.3077692 21,29.2871538 23.6773846,29.2871538 C26.3540769,29.2871538 28.2754615,31.2828462 28.2754615,33.7490769 L28.2754615,33.7742308 L28.2756923,33.7742308 L28.2756923,33.7742308 Z M25.3869231,11.8333846 L25.3846154,24.0475385 C25.3843846,24.8120769 24.7645385,25.4319231 24,25.4319231 C24,25.4319231 24,25.4319231 23.9997692,25.4319231 C23.235,25.4316923 22.6151538,24.8116154 22.6153846,24.0470769 L22.6176923,11.8250769 C20.7703846,13.6726154 18.5044615,15.9530769 18.4716923,15.9863077 C18.2012308,16.2586154 17.8453846,16.395 17.4895385,16.395 C17.1366923,16.395 16.7838462,16.2609231 16.5136154,15.9925385 C15.9710769,15.4536923 15.9683077,14.577 16.5073846,14.0344615 C16.7028462,13.8376154 21.3126923,9.19823077 22.6643077,7.87269231 C23.1452308,7.40076923 23.5846154,7.26923077 23.8682308,7.242 L24.0212308,7.22746154 L24.1735385,7.24661538 C24.4460769,7.281 24.8681538,7.41761538 25.3322308,7.87384615 C26.6743846,9.19061538 31.2969231,13.8366923 31.4928462,14.034 C32.0321538,14.5760769 32.0298462,15.4527692 31.4877692,15.9920769 C30.9454615,16.5311538 30.0692308,16.5290769 29.5296923,15.987 C29.4962308,15.9535385 27.2298462,13.6753846 25.3869231,11.8333846 L25.3869231,11.8333846 Z M36.8409231,32.4604615 C36.8409231,34.4683846 35.2790769,35.5093846 33.333,35.5093846 L31.8830769,35.5093846 L31.8830769,38.1122308 L29.9739231,38.1122308 L29.9739231,29.4355385 L33.519,29.4355385 C35.589,29.4355385 36.8411538,30.6627692 36.8411538,32.4355385 L36.8411538,32.4604615 L36.8409231,32.4604615 L36.8409231,32.4604615 Z" id="path-1"></path>
    </defs>
    <g id="Symbols" stroke="none" stroke-width="1" fill="none" fill-rule="evenodd">
        <g id="icon/Nav/back-to-top">
            <g id="Icon">
                <mask id="mask-2" fill="white">
                    <use xlink:href="#path-1"></use>
                </mask>
                <use id="Mask" fill="#384048" xlink:href="#path-1"></use>
                <g id="Color/Grayscale/Night-Sky" mask="url(#mask-2)" fill="#111111">
                    <rect id="Swatch" x="0" y="0" width="48" height="48"></rect>
                </g>
            </g>
        </g>
    </g>
</svg>

<?xml version="1.0" encoding="utf-8"?>
<!-- Generator: Adobe Illustrator 21.0.2, SVG Export Plug-In . SVG Version: 6.00 Build 0)  -->
<svg version="1.1" id="icon_x2F_Nav_x2F_back-to-top-Layer_1" xmlns="http://www.w3.org/2000/svg" xmlns:xlink="http://www.w3.org/1999/xlink" x="0px" y="0px"
	 viewBox="0 0 48 48" style="enable-background:new 0 0 48 48;" xml:space="preserve">
<title>icon/Nav/back-to-top</title>
<desc>Created with Sketch.</desc>
<g id="icon_x2F_Nav_x2F_back-to-top-Symbols">
	<g id="icon_x2F_Nav_x2F_back-to-top">
		<g id="icon_x2F_Nav_x2F_back-to-top-Icon">
			<g id="icon_x2F_Nav_x2F_back-to-top-Mask">
				<path id="icon_x2F_Nav_x2F_back-to-top-path-1_1_" style="fill:#384048;" d="M23.7,31c-1.5,0-2.6,1.2-2.6,2.7v0c0,1.5,1.1,2.7,2.6,2.7c1.5,0,2.6-1.2,2.6-2.7
					v0C26.3,32.3,25.2,31,23.7,31L23.7,31z M33.4,31.2h-1.5v2.7h1.5c1,0,1.5-0.6,1.5-1.3v0C34.9,31.6,34.3,31.2,33.4,31.2L33.4,31.2
					z M24,0C10.7,0,0,10.7,0,24s10.7,24,24,24s24-10.7,24-24S37.3,0,24,0L24,0z M18.3,31.2h-2.6v6.9h-1.9v-6.9h-2.6v-1.8l7.2,0
					L18.3,31.2L18.3,31.2L18.3,31.2z M28.3,33.8c0,2.5-1.9,4.5-4.6,4.5c-2.7,0-4.6-2-4.6-4.5v0c0-2.5,1.9-4.5,4.6-4.5
					C26.4,29.3,28.3,31.3,28.3,33.8L28.3,33.8L28.3,33.8L28.3,33.8z M25.4,11.8l0,12.2c0,0.8-0.6,1.4-1.4,1.4c0,0,0,0,0,0
					c-0.8,0-1.4-0.6-1.4-1.4l0-12.2c-1.8,1.8-4.1,4.1-4.1,4.2c-0.3,0.3-0.6,0.4-1,0.4c-0.4,0-0.7-0.1-1-0.4c-0.5-0.5-0.5-1.4,0-2
					c0.2-0.2,4.8-4.8,6.2-6.2c0.5-0.5,0.9-0.6,1.2-0.6l0.2,0l0.2,0c0.3,0,0.7,0.2,1.2,0.6c1.3,1.3,6,6,6.2,6.2c0.5,0.5,0.5,1.4,0,2
					c-0.5,0.5-1.4,0.5-2,0C29.5,16,27.2,13.7,25.4,11.8L25.4,11.8z M36.8,32.5c0,2-1.6,3-3.5,3h-1.4v2.6H30v-8.7h3.5
					C35.6,29.4,36.8,30.7,36.8,32.5L36.8,32.5L36.8,32.5L36.8,32.5z"/>
			</g>
			<defs>
				<filter id="icon_x2F_Nav_x2F_back-to-top-Adobe_OpacityMaskFilter" filterUnits="userSpaceOnUse" x="0" y="0" width="48" height="48">
					<feColorMatrix  type="matrix" values="1 0 0 0 0  0 1 0 0 0  0 0 1 0 0  0 0 0 1 0"/>
				</filter>
			</defs>
			<mask maskUnits="userSpaceOnUse" x="0" y="0" width="48" height="48" id="icon_x2F_Nav_x2F_back-to-top-mask-2">
				<g style="filter:url(#icon_x2F_Nav_x2F_back-to-top-Adobe_OpacityMaskFilter);">
					<path id="icon_x2F_Nav_x2F_back-to-top-path-1" style="fill:#FFFFFF;" d="M23.7,31c-1.5,0-2.6,1.2-2.6,2.7v0c0,1.5,1.1,2.7,2.6,2.7c1.5,0,2.6-1.2,2.6-2.7v0
						C26.3,32.3,25.2,31,23.7,31L23.7,31z M33.4,31.2h-1.5v2.7h1.5c1,0,1.5-0.6,1.5-1.3v0C34.9,31.6,34.3,31.2,33.4,31.2L33.4,31.2z
						 M24,0C10.7,0,0,10.7,0,24s10.7,24,24,24s24-10.7,24-24S37.3,0,24,0L24,0z M18.3,31.2h-2.6v6.9h-1.9v-6.9h-2.6v-1.8l7.2,0
						L18.3,31.2L18.3,31.2L18.3,31.2z M28.3,33.8c0,2.5-1.9,4.5-4.6,4.5c-2.7,0-4.6-2-4.6-4.5v0c0-2.5,1.9-4.5,4.6-4.5
						C26.4,29.3,28.3,31.3,28.3,33.8L28.3,33.8L28.3,33.8L28.3,33.8z M25.4,11.8l0,12.2c0,0.8-0.6,1.4-1.4,1.4c0,0,0,0,0,0
						c-0.8,0-1.4-0.6-1.4-1.4l0-12.2c-1.8,1.8-4.1,4.1-4.1,4.2c-0.3,0.3-0.6,0.4-1,0.4c-0.4,0-0.7-0.1-1-0.4c-0.5-0.5-0.5-1.4,0-2
						c0.2-0.2,4.8-4.8,6.2-6.2c0.5-0.5,0.9-0.6,1.2-0.6l0.2,0l0.2,0c0.3,0,0.7,0.2,1.2,0.6c1.3,1.3,6,6,6.2,6.2c0.5,0.5,0.5,1.4,0,2
						c-0.5,0.5-1.4,0.5-2,0C29.5,16,27.2,13.7,25.4,11.8L25.4,11.8z M36.8,32.5c0,2-1.6,3-3.5,3h-1.4v2.6H30v-8.7h3.5
						C35.6,29.4,36.8,30.7,36.8,32.5L36.8,32.5L36.8,32.5L36.8,32.5z"/>
				</g>
			</mask>
			<g id="icon_x2F_Nav_x2F_back-to-top-Color_x2F_Grayscale_x2F_Night-Sky" style="mask:url(#icon_x2F_Nav_x2F_back-to-top-mask-2);">
				<rect id="icon_x2F_Nav_x2F_back-to-top-Swatch" style="fill:#111111;" width="48" height="48"/>
			</g>
		</g>
	</g>
</g>
</svg>
